X:264
T: ZUM SOLDAT BIN ICH GEBOREN
N: E1405
O: Europa, Mitteleuropa, Deutschland, Hessen, Marburg, Ziegenhain,
R: Staende -, Soldaten - Lied, Invaliden
M: 3/4
L: 1/8
K: G
DD | G3ABB | A2G2
Bc | d3cBd | A2z2
AB | c3edc | B2A2
GB | A2d2cc | B2z2

